dist/svgs/unicons/solid/th-large.svg

<svg xmlns="http://www.w3.org/2000/svg" viewBox="0 0 24 24"><path d="M20 3H4c-.6 0-1 .4-1 1v16c0 .6.4 1 1 1h16c.6 0 1-.4 1-1V4c0-.6-.4-1-1-1zm-1 8h-6V5h6v6zm-8-6v6H5V5h6zm-6 8h6v6H5v-6zm8 6v-6h6v6h-6z"/></svg>

<svg xmlns="http://www.w3.org/2000/svg" enable-background="new 0 0 24 24" viewBox="0 0 24 24"><path d="M20,3H4C3.4,3,3,3.4,3,4v16c0,0.6,0.4,1,1,1h16c0.6,0,1-0.4,1-1V4C21,3.4,20.6,3,20,3z M19,11h-6V5h6V11z M11,5v6H5V5H11z M5,13h6v6H5V13z M13,19v-6h6v6H13z"/></svg>
